X:1
T:Waly, Waly
M:3/4
L:1/8
K:C
 C| E3/2 F/2 G2 c2| d3/2 e/2 d3 D| E3/2 F/2 G2 c2| e3/2 d/2 c3 C| E3/2 F/2 G2 c2|\
 d3/2 e/2 d3 D| E3/2 F/2 G2 c2| e3/2 d/2 c2 z _B| A3/2 G/2 F3 G| AG _B3A/2-G/2|\
 Ac G2 e2| d3/2 c/2 c2 z _B| A3/2 G/2 E3 c| GE D3 _B| AG c3 E| D3/2 C/2 C3|\


